src/lib/packages/icons/src/assets/line/receipt-heart-alt.svg

<svg width="24" height="24" viewBox="0 0 24 24" fill="none" xmlns="http://www.w3.org/2000/svg">
<path d="M12 21.749C11.424 21.749 10.8481 21.53 10.4091 21.091L8.38904 19.072C8.12604 18.81 7.70496 18.781 7.40796 19.003L6.05005 20.022C5.51605 20.422 4.81302 20.485 4.21802 20.187C3.62102 19.889 3.25 19.289 3.25 18.622V5.379C3.25 4.712 3.62102 4.112 4.21802 3.814C4.81302 3.515 5.51605 3.57901 6.05005 3.97901L7.40906 4.999C7.70506 5.221 8.12704 5.19199 8.38904 4.92899L10.4091 2.91001C11.2861 2.03301 12.7139 2.03301 13.5909 2.91001L15.611 4.93C15.874 5.192 16.295 5.221 16.592 4.999L17.95 3.98002C18.484 3.58002 19.187 3.51601 19.782 3.81501C20.379 4.11301 20.75 4.71301 20.75 5.38001V18.623C20.75 19.29 20.379 19.89 19.782 20.188C19.187 20.486 18.484 20.423 17.95 20.023L16.5909 19.003C16.2949 18.781 15.873 18.81 15.611 19.073L13.5909 21.092C13.1519 21.53 12.576 21.749 12 21.749ZM7.85596 17.356C8.43696 17.356 9.01595 17.578 9.44995 18.011L11.47 20.031C11.753 20.314 12.247 20.314 12.531 20.031L14.551 18.012C15.338 17.225 16.605 17.137 17.491 17.803L18.851 18.823C18.958 18.905 19.06 18.872 19.113 18.847C19.164 18.821 19.251 18.758 19.251 18.623V5.38001C19.251 5.24501 19.164 5.18201 19.113 5.15601C19.06 5.13001 18.959 5.098 18.851 5.18L17.4919 6.20002C16.6029 6.86602 15.338 6.778 14.551 5.991L12.531 3.97101C12.238 3.67901 11.763 3.67901 11.47 3.97101L9.44995 5.98999C8.66395 6.77699 7.39601 6.86501 6.51001 6.19901L5.15002 5.17899C5.04202 5.09699 4.93994 5.129 4.88794 5.155C4.83694 5.181 4.75 5.244 4.75 5.379V18.622C4.75 18.757 4.83694 18.82 4.88794 18.846C4.93994 18.872 5.04102 18.904 5.15002 18.822L6.50903 17.802C6.90803 17.503 7.38296 17.356 7.85596 17.356ZM12 16.5C11.895 16.5 11.789 16.478 11.691 16.434C11.538 16.365 7.92701 14.702 7.33801 11.688C7.10001 10.469 7.33606 9.31301 7.98706 8.51801C8.52906 7.85701 9.30295 7.505 10.226 7.5C10.231 7.5 10.236 7.5 10.24 7.5C11.01 7.5 11.589 7.81701 11.999 8.21601C12.412 7.81401 13.009 7.517 13.77 7.5C14.694 7.504 15.468 7.856 16.01 8.517C16.66 9.311 16.8981 10.466 16.6591 11.687C16.0701 14.702 12.46 16.364 12.306 16.433C12.211 16.478 12.105 16.5 12 16.5ZM10.24 9C10.238 9 10.237 9 10.235 9C9.76599 9.002 9.40095 9.15999 9.14795 9.46799C8.78695 9.90899 8.66104 10.631 8.81104 11.399C9.16604 13.218 11.211 14.482 11.999 14.909C12.787 14.483 14.832 13.218 15.187 11.4C15.337 10.631 15.211 9.90799 14.85 9.46799C14.597 9.15999 14.232 9.003 13.762 9C13.761 9 13.759 9 13.757 9C13.021 9 12.736 9.73 12.707 9.814C12.6 10.112 12.315 10.314 11.999 10.314C11.997 10.314 11.994 10.314 11.991 10.314C11.672 10.311 11.388 10.109 11.287 9.806C11.262 9.73 10.978 9 10.24 9ZM15.925 11.543H15.9351H15.925Z" fill="currentColor"/>
</svg>

<svg xmlns="http://www.w3.org/2000/svg" width="24" height="24" fill="none"><path fill="currentColor" d="M12 21.749a2.242 2.242 0 0 1-1.59-.658l-2.021-2.019a.756.756 0 0 0-.981-.069L6.05 20.022c-.534.4-1.237.463-1.832.165a1.74 1.74 0 0 1-.968-1.565V5.379c0-.667.371-1.267.968-1.565a1.739 1.739 0 0 1 1.832.165l1.36 1.02a.753.753 0 0 0 .979-.07l2.02-2.019a2.253 2.253 0 0 1 3.182 0l2.02 2.02a.755.755 0 0 0 .981.069L17.95 3.98a1.739 1.739 0 0 1 1.832-.165c.597.298.968.898.968 1.565v13.243a1.74 1.74 0 0 1-.968 1.565 1.741 1.741 0 0 1-1.832-.165l-1.36-1.02a.753.753 0 0 0-.979.07l-2.02 2.019a2.245 2.245 0 0 1-1.591.657Zm-4.144-4.393c.581 0 1.16.222 1.594.655l2.02 2.02a.77.77 0 0 0 1.061 0l2.02-2.019a2.261 2.261 0 0 1 2.94-.209l1.36 1.02a.24.24 0 0 0 .262.024.241.241 0 0 0 .138-.224V5.38a.241.241 0 0 0-.138-.224.238.238 0 0 0-.262.024l-1.36 1.02a2.262 2.262 0 0 1-2.94-.209l-2.02-2.02a.752.752 0 0 0-1.061 0L9.45 5.99a2.261 2.261 0 0 1-2.94.209l-1.36-1.02a.238.238 0 0 0-.262-.024.241.241 0 0 0-.138.224v13.243c0 .135.087.198.138.224a.238.238 0 0 0 .262-.024l1.359-1.02a2.242 2.242 0 0 1 1.347-.446ZM12 16.5a.756.756 0 0 1-.309-.066c-.153-.069-3.764-1.732-4.353-4.746-.238-1.219-.002-2.375.65-3.17.541-.661 1.315-1.013 2.238-1.018h.014c.77 0 1.349.317 1.759.716.413-.402 1.01-.699 1.771-.716.924.004 1.698.356 2.24 1.017.65.794.888 1.949.65 3.17-.59 3.015-4.2 4.677-4.354 4.746A.718.718 0 0 1 12 16.5ZM10.24 9h-.005c-.469.002-.834.16-1.087.468-.361.441-.487 1.163-.337 1.931.355 1.819 2.4 3.083 3.188 3.51.788-.426 2.833-1.691 3.188-3.509.15-.769.024-1.492-.337-1.932-.253-.308-.618-.465-1.088-.468h-.005c-.736 0-1.021.73-1.05.814a.756.756 0 0 1-.708.5h-.008a.747.747 0 0 1-.704-.508C11.262 9.73 10.978 9 10.24 9Zm5.685 2.543h.01-.01Z"/></svg>
